X: 577
%
U:~=!turn!
T: Sleepy Maggy
C:Neil Gow's Collection
O:Scotland
B:Keith Norman MacDonald : "The Skye collection of the best reels & strathspeys extant" : 1887
Z:Ralph Palmer
R:Reel
M:C
L:1/8
K:D
g !segno!||f2 B>b fBde | f2 Ba eAce | f2 B>b fBde | f>^gaf eAce :| f>BdB fBd(e | f>)BdB eAc(e |
f>)BdB fBde | f>^gaf eAc(e | f>)BdB fBde | f>BdB eAce | f>BdB fBde | f>^gaf eAce !segno!|]


